!!!COM: Beethoven, Ludwig van
!!!CDT: 1770///-1827///
!!!ODT: 1826///
!!!OTL: String Quartet No. 16 in F Major, Op. 135
!!!OPS: Op. 135
!!!OMV: Mvmt. 1
!!!OMD: Allegretto
!!!PDT: 1827///
!!!PPP: Berlin and Paris
!!!ODE: Johann Wolfmeier gewidmet
!!!MPD: 1828/03/28/
!!!ONB: grace notes written out with durations.
**kern	**kern	**kern	**kern
*Icello	*Iviola	*Ivioln	*Ivioln
*staff4	*staff3	*staff2	*staff1
*clefF4	*clefC3	*clefG2	*clefG2
*k[b-]	*k[b-]	*k[b-]	*k[b-]
*F:	*F:	*F:	*F:
*M2/4	*M2/4	*M2/4	*M2/4
*MM82	*MM82	*MM82	*MM82
16r	(32G/LLL	16r	16r
.	32A/JJJ	.	.
=1-	=1-	=1-	=1-
4r	4B-/)	2r	2r
(4DD-/	(8..F/L	.	.
.	32G/Jkk)	.	.
=2	=2	=2	=2
8CC/)	8E/	2r	16r
.	.	.	(32g/LLL
.	.	.	32a/JJJ
8r	8r	.	8b-'/)
4r	8.r	.	4r
.	(32G/LLL	.	.
.	32A/JJJ	.	.
=3	=3	=3	=3
4r	4B-/)	4r	2r
(4DD-/	(8..F/L	4B-/	.
.	32G/Jkk)	.	.
=4	=4	=4	=4
8CC/)	8E/	16G/ 16e/	16r
.	.	(32g/LLL	(32ee\LLL
.	.	32a/JJJ	32ff\JJJ
8r	8r	8b-'/)	8gg'\)
8r	16.r	4r	4r
.	(32G/LLK	.	.
8BB-/	16C/	.	.
.	16E/JJ	.	.
=5	=5	=5	=5
8AA/L	8F'/)	16.r	4r
.	.	(32a/LLK	.
8FF/J	8r	16c/	.
.	.	16f/JJ	.
8EE/L	4r	8g'/)	16.r
.	.	.	(32b-/LLK
8CC/J	.	8r	16c/
.	.	.	16g/JJ)
=6	=6	=6	=6
8r	8r	8r	(16.a/LL
.	.	.	32b-/JJk
8FF/	(16.F/LL	(16.A/LL	4cc\)
.	32G/JJk	32B-/JJk	.
4r	16A\LL)	8c'/)	.
.	(16f\	.	.
.	16e\	8r	8r
.	16d\JJ	.	.
=7	=7	=7	=7
8r	8c\)	2r	16r
.	.	.	(16dd\LL
8BB-/L	8r	.	16b-\
.	.	.	16g\JJ
8C/	16r	.	8f/)
.	(16G/LL	.	.
8C/J	16E/	.	8r
.	16C/JJ)	.	.
=8	=8	=8	=8
4r	(16.A/LL	8r	8r
.	32B-/Jk)	.	.
.	[8c/J	(16.f/LL	(16.a/LL
.	.	32g/JJk	32b-/JJk
8AA/L	16c\LK]	8f'/)	16cc\LK)
.	32r	.	32r
.	(32f\LK	.	(32ff\LK
8BB-/J	16e\	8r	16ee\
.	16d\JJ	.	16dd\JJ
=9	=9	=9	=9
8r	16c'/LK)	16.r	16cc\LK)
.	32r	.	32r
.	(32d/LK	(32dd\LLK	(32ddd\LK
8BB-/L	16B-/	16b-\	16bb-\
.	16G/JJ	16g\JJ	16gg\JJ
8C/	16F'/LK)	16f'/LK)	16ff'\LK)
.	32r	32r	32r
.	(32G/LK	(32g/LK	(32gg\LK
8CC/J	16E/	16e/	16ee\
.	16C/JJ	16c/JJ	16cc\JJ
=10	=10	=10	=10
8FF/	8F/)	8f/)	8ff\)
8r	8r	8r	8r
(4C/	(4c\	4r	(4cc\
=11	=11	=11	=11
4DD/)	4D/)	4r	4d/)
(4AA/	(4A/	(4A/	(4a/
=12	=12	=12	=12
4GG/)	4G/)	4G/)	4g/)
(4D\	(4d\	4r	(4dd\
=13	=13	=13	=13
4EE/)	4E/)	4r	4e/)
(4BB-/	(4B-/	(4B-/	(4b-\
=14	=14	=14	=14
4AA/)	4A/)	4A/)	4a/)
4DD/	4F/	(4A/	(4aa\
=15	=15	=15	=15
[2GG/	[2D/	[2Bn/)	[4ff\)
.	.	.	(24ff\LL]
.	.	.	24ee\
.	.	.	24dd\JJ
.	.	.	24cc\LL
.	.	.	24bn\
.	.	.	24dd\JJ)
=16	=16	=16	=16
8GG/L]	8D/L]	8B/L]	(24g/LL
.	.	.	24f#/
.	.	.	24g/JJ
8GG'/J	8G'/J 8d'/	8Bn'/J 8f'/	24a\LL
.	.	.	24bn\
.	.	.	24cc\JJ
8GG'/L	8G'/L 8d'/	8B'/L 8f'/	24dd\LL
.	.	.	24ee\
.	.	.	24ff\JJ
8GG'/J	8G'/J 8d'/	8B'/J 8f'/	24gg\LL
.	.	.	24aa\
.	.	.	24bbn\JJ)
=17	=17	=17	=17
8CC/	8C/ 8c/	8G/ 8e/	8ccc\
8r	8r	8r	(16.bbn\LL
.	.	.	32ddd\JJk)
4r	8r	8r	8ccc'\L
.	(16.D/LL	(16.Bn/LL	8ccc'\J
.	32F/JJk)	32d/JJk)	.
=18	=18	=18	=18
8r	8E'/L	8c'/L	[2ccc\
(16.EE/LL	8E'/J	(16.g/L	.
32GG/JJk)	.	32b-/JJk)	.
8FF#'/L	[4E-/	8a'/L	.
8FF#'/J	.	[8e-/J	.
=19	=19	=19	=19
(4FF#/	(8E-/L]	(8e-/L]	(16.ccc\LL]
.	.	.	32ff#\JJk)
.	16.F#/L	8d/J)	8bb-'\L
.	32B-/JJk)	.	.
[4BB-/)	8D'/L	8d'/L	8bb-'\
.	8D'/J	8g'/J	8bb-'\J
=20	=20	=20	=20
(16.BB-/LL]	8D/L	8g/	[2bb-\
32DD/JJk)	.	.	.
8GG'/L	(16.D/L	8r	.
.	32Fn/JJk)	.	.
8GG'/	8En'/L	8r	.
8GG'/J	8E'/J	(16.g/LL	.
.	.	32b-/JJk)	.
=21	=21	=21	=21
(8GG/L	(16.E/LL	8c'/L	(8bb-\L]
.	32G/JJk)	.	.
8FF/)	8F/	8c'/J	16.gg\L
.	.	.	32bb-\JJk)
8FF'/	(4cc\	8a'/L	8aa'\L
8FF'/J	.	8a'/J	8aa'\J
=22	=22	=22	=22
8r	4f\)	4r	8aa/L
*clefC4	*	*	*
(16.c#\LL	.	.	(16.e/L
32e\JJk)	.	.	32g/JJk)
8d'\L	(4a\	(4ff\	8f'/L
8d'\J	.	.	8f'/J
=23	=23	=23	=23
4r	8d\L)	8bn\L)	2r
.	(16.e\L	(16.cc#\L	.
.	32g\JJk)	32ee\JJk)	.
*clefF4	*	*	*
(4A-\	8f'\L	8dd'\L	.
.	8f'\J	8dd'\J	.
=24	=24	=24	=24
8BBn/L)	(8f\L	8dd\L	4r
(16.BB/L	16.d\L	(16.dd\L	.
32D/JJk)	32Bn\JJk)	32ff\JJk)	.
8C'/L	8B-'/L	8ee'\L	(4gg\
8C'/J	8B-'/J	8ee'\J	.
=25	=25	=25	=25
16F\LL	16A/LL	16a/LL	[4cc\)
16F\	16A/	16f/ 16a/	.
16F\	16A/	16f/ 16a/	.
16F\JJ	16A/JJ	16f/JJ 16a/	.
8F\	8A/	8f/ 8a/	16cc\LL]
.	.	.	(16ff\
8r	8r	8r	16ee\
.	.	.	16ff\JJ
=26	=26	=26	=26
2r	2r	2r	16cc'\LL)
.	.	.	(16dd\
.	.	.	16a\
.	.	.	16b-\JJ
.	.	.	16a'\LL)
.	.	.	(16bb-\
.	.	.	16ff\
.	.	.	16gg\JJ
=27	=27	=27	=27
16D\LL	16F/LL 16A/	[4a/	8aa\)
16d\	16f/	.	.
16d\	16f/	.	8r
16d\JJ	16f/JJ	.	.
8d\	8f\	16a\LL]	4r
.	.	(16dd\	.
8r	8r	16cc#\	.
.	.	16dd\JJ	.
=28	=28	=28	=28
2r	2r	16a'/LL)	2r
.	.	(16b-/	.
.	.	16f/	.
.	.	16g/JJ	.
.	.	16f'/LL)	.
.	.	(16g/	.
.	.	16e/	.
.	.	16f/JJ	.
=29	=29	=29	=29
16Bn\LL	16d\LL	16g/LL)	[4dd\
16G\	16bn\	16Bn/	.
16G\	16b\	16B/	.
16G\JJ	16b\JJ	16B/JJ	.
4G\	4b\	8B/	16dd\LL]
.	.	.	(16gg\
.	.	8r	16ff#\
.	.	.	16gg\JJ
=30	=30	=30	=30
2r	16r	4r	16ff#'\LL)
.	(16g\LL	.	(16gg\
.	16d\	.	16dd\
.	16e\JJ	.	16ee\JJ
.	16d'/LL)	16r	16dd'\LL)
.	(16Bn/	(16e/LL	(16ee\
.	16G/	16Bn/	16bn\
.	16A/JJ	16c/JJ	16cc\JJ)
=31	=31	=31	=31
*clefC4	*	*	*
2g\	8Bn'/)	8d'/)	(16dd\LL
.	.	.	16bn\
.	8r	8r	16dd\)
.	.	.	16dd'\JJ
.	4r	(16bn/LL	(16dd\LL
.	.	16g/	16b\
.	.	16b/)	16gg\J)
.	.	16b'/JJ	32r
.	.	.	32gg'\Jkk
=32	=32	=32	=32
2d\	2r	(16a/LL	(4gg\
.	.	16d/	.
.	.	16a/)	.
.	.	16a'/JJ	.
.	.	(16a/LL	4ff#\)
.	.	16f#/	.
.	.	16cc/J)	.
.	.	32r	.
.	.	32cc'/Jkk	.
=33	=33	=33	=33
2r	2G/	(4cc\	(16d/LL
.	.	.	16G/
.	.	.	16d/)
.	.	.	16d'/JJ
.	.	4bn\)	(16d/LL
.	.	.	16Bn/
.	.	.	16f/J)
.	.	.	32r
.	.	.	32f'/Jkk
=34	=34	=34	=34
*clefF4	*	*	*
(16GG/LL	[4C/	2r	(4f/
16CC/	.	.	.
16GG/)	.	.	.
16GG'/JJ	.	.	.
(16GG/LL	16C/LL]	.	[4e/)
16CC/	(16C/	.	.
16C/J)	16E/J)	.	.
32r	32r	.	.
32C'/Jkk	32E'/Jkk	.	.
=35	=35	=35	=35
(4C/	[2E/	16r	16e/LL]
.	.	(16c/LL	(16e/
.	.	16cc/)	16ee/)
.	.	16cc'/JJ	16ee'/JJ
4GG#/	.	(16cc/LL	(16ee/LL
.	.	16c/	16e/
.	.	16cc/J)	16ee/J)
.	.	32r	32r
.	.	32cc'/Jkk	32ee'/Jkk
=36	=36	=36	=36
4GG/	16E/LL]	[4cc#\	(8.ee\L
.	(16E/	.	.
.	16B-/)	.	.
.	16B-'/JJ	.	16cc#\Jk)
8FF#/L	16A'/LL	(16cc#/LL]	(16ee\LL
.	(16A/	16d/	16dd\
[8FFn/J)	16d/)	16dd/)	16bbn\)
.	16d'/JJ	16dd'/JJ	16aa'\JJ
=37	=37	=37	=37
8FF/L]	16r	16r	(16dd\LL
.	16G'\LL	16g'/LL	16ccn\)
8EE'/	16g'\	16ccn'/	(16aa\
.	16g'\JJ	16cc'/JJ	16gg\JJ)
8FF'/	16r	16r	(16cc\LL
.	16G'/LL	16d'/LL	16bn\)
8GG'/J	16d'/	16bn'/	(16aa\
.	16d'/JJ	16b'/JJ	16gg\JJ)
=38	=38	=38	=38
4r	24c/LL	8c'/L	[2gg\
.	24G/	.	.
.	24A/JJ	.	.
.	24G/LL	8e'/	.
.	24E/	.	.
.	24F/JJ	.	.
8r	24E/LL	8g'/	.
.	24C/	.	.
.	24D/JJ	.	.
24e\LL	8C/	8cc'/J	.
*clefC4	*	*	*
24d\	.	.	.
24c\JJ	.	.	.
=39	=39	=39	=39
24f\LL	4r	8bn'\L	2gg\]
24d\	.	.	.
24Bn\JJ	.	.	.
*clefF4	*	*	*
24G\LL	.	8dd'\J	.
24D\	.	.	.
24BBn\JJ	.	.	.
8GG/	24G/LL	4ff'\	.
.	24Bn/	.	.
.	24d/JJ	.	.
8r	24g\LL	.	.
.	24bn\	.	.
.	24dd\JJ	.	.
=40	=40	=40	=40
2r	8bn\	24ff\LL	8gg'\L
.	.	24dd\	.
.	.	24ee\JJ	.
.	8r	24dd\LL	8bbn'\J
.	.	24bn\	.
.	.	24cc\JJ	.
.	8r	24b/LL	8ddd'\L
.	.	24g/	.
.	.	24a/JJ	.
.	24b\LL	8g/	8ggg'\J
.	24a\	.	.
.	24g\JJ	.	.
=41	=41	=41	=41
4r	24cc\LL	4r	8eee'\L
.	24g\	.	.
.	24e\JJ	.	.
.	24c/LL	.	8ggg'\J
.	24G/	.	.
.	24E/JJ	.	.
24c\LL	8C/	24e/LL	4cccc\
24G\	.	24g/	.
24E\JJ	.	24cc/JJ	.
24C/LL	8r	24ee\LL	.
24GG/	.	24gg\	.
24EE/JJ	.	24bbn\JJ	.
=42	=42	=42	=42
8CC'/L	4r	24ccc\LL	4r
.	.	24gg\	.
.	.	24aa\JJ	.
8EE'/J	.	24gg\LL	.
.	.	24ee\	.
.	.	24ff\JJ	.
8GG'/L	8C'/L	24ee\LL	8r
.	.	24cc\	.
.	.	24dd\JJ	.
8C'/J	8E'/J	8cc\	24eee\LL
.	.	.	24ddd\
.	.	.	24ccc\JJ
=43	=43	=43	=43
8BBn'/L	8G'\L	4r	24fff\LL
.	.	.	24ddd\
.	.	.	24bbn\JJ
8D'/J	8Bn'\	.	24ff\LL
.	.	.	24dd\
.	.	.	24bn\JJ
16F'\LL	8d'\	24ff\LL	24g\LL
.	.	24dd\	24b\
16G'\	.	.	.
.	.	24bn\JJ	24dd\JJ
16Bn'\	8f'\J	24dd\LL	24gg\LL
.	.	24b\	24bb\
16d'\JJ	.	.	.
.	.	24g\JJ	24ddd\JJ
=44	=44	=44	=44
8r	24g\LL	24bn\LL	24fff\LL
.	24a\	24cc\	24ddd\
.	24bn\JJ	24dd\JJ	24bbn\JJ
8c\	24cc\LL	24ee\LL	24gg\LL
.	24dd\	24ff\	24ccc\
.	24cc\JJ	24ee\JJ	24eee\JJ
24F\LL	24A/LL	4r	24eee\LL
24G\	24B-/	.	24ccc\
24A\JJ	24c/JJ	.	24aa\JJ
24B-\LL	24d\LL	.	24ff\LL
24c\	24e\	.	24bb-\
24B-\JJ	24d\JJ	.	24ddd\JJ
=45	=45	=45	=45
8Bn\L	24e\LL	24g#/LL	24ddd\LL
.	24e\	24a/	24bbn\
.	24e\JJ	24bn/JJ	24gg#\JJ
8A\J	24e\LL	24cc\LL	24ee\LL
.	24e\	24dd\	24aa\
.	24e\JJ	24cc\JJ	24ccc\JJ
24D\LL	24f#\LL	24a/LL	24ccc\LL
24E\	24e\	24a/	24aa\
24F#\JJ	24d\JJ	24a/JJ	24ff#\JJ
24G\LL	24d\LL	24gn/LL	24bb\LL
24A\	24d\	24g/	24ggn\
24G\JJ	24d\JJ	24g/JJ	24dd\JJ
=46	=46	=46	=46
[2D#\	(8c/L	(8cc/L	(8ccc\L
.	8G/	8g/	8gg\
.	8c/)	8cc/)	8ccc\)
.	8A'/J	8a'/J	8aa'\J
=47	=47	=47	=47
(8D#\L]	(4.G/	(4.g/	(4.gg\
8E\J	.	.	.
8F\L)	.	.	.
8Dn\J	16A/LL	16a/LL	16aa\LL
.	16Bn/JJ)	16bn/JJ)	16bbn\JJ)
=48	=48	=48	=48
(8C/L	(8c\L	(8cc\L	(8ccc\L
8BBn/J	8d\J	8dd\J	8ddd\J
8C'/L)	8e'\L)	8ee'\L)	8eee'\L)
8AA'/J	8c'\J	8ee'\J	8eee'\J
=49	=49	=49	=49
(8GG#/L	(8Bn/L	(8ee\L	(8eee\L
8EE/J	8G#/J	8dd\J	8ddd\J
4FF/)	8A/L	8cc\L	8ccc\L
.	8D/J)	8a\J)	8aa\J)
=50	=50	=50	=50
8EE/L	16D\LL	16d/LL 16bn/	(16aa\LL
.	16Bn\	16dd/	16gg#\)
*clefC4	*	*	*
8e'/	16B\	16dd/	16gg#'\
.	16bn\JJ	16dd/JJ	16aa'\JJ
8f'/	16b\LL	16dd\LL	(16aa\LL
.	16b\	16dd\	16ggn\)
8f'/J	16b\	16dd\	16gg'\
.	16b\JJ	16dd\JJ	16gg'\JJ
=51	=51	=51	=51
8gn\L	16e\LL	16cc\LL	(16gg\LL
.	16e\	16cc\	16ee\)
8g\	16e\	16cc\	16ee'\
.	16e\JJ	16cc\JJ	16ff'\JJ
8a\	16e\LL	16cc\LL	16ff'\LL
.	16c\	16cc\	16ff#'\
8a\J	16c\	16ee\	16ff#'\
.	16cc\JJ	16ee\JJ	16gg\JJ
=52	=52	=52	=52
24e\LL	24cc\LL	24ee\LL	(24aa\LL
24e\	24bn\	24ee\	24gg#\)
24e\JJ	24b\JJ	24dd\JJ	24gg#'\JJ
24e\LL	24b\LL	24dd\LL	(24gg#\LL
24e\	24b\	24dd\	24aa\)
24e\JJ	24b\JJ	24dd\JJ	24aa'\JJ
24f\LL	24b\LL	24dd\LL	(24aa\LL
24f\	24b\	24dd\	24gg#\)
24f\JJ	24b\JJ	24dd\JJ	24gg#'\JJ
24f\LL	24b\LL	24dd\LL	(24gg#\LL
24f\	24b\	24dd\	24ggn\)
24f\JJ	24b\JJ	24dd\JJ	24gg'\JJ
=53	=53	=53	=53
24g\LL	24e\LL	24cc\LL	24gg\LL
24g\	24e\	24cc\	24ee\
24g\JJ	24e\JJ	24cc\JJ	24ff\JJ
24g\LL	24Bn/LL	24dd\LL	24ff\LL
24g\	24B/	24dd\	24ff#\
24g\JJ	24B/JJ	24dd\JJ	24gg\JJ
24g\LL	24c\LL	24a/LL	(24gg\LL
24g\	24c\	24a/	24aa\
24g\JJ	24c\JJ	24a/JJ	24gg\JJ
24g\LL	24d\LL	24bn\LL	24ffn\LL
24g\	24d\	24b\	24ee\
24g\JJ	24d\JJ	24b\JJ	24dd\JJ)
=54	=54	=54	=54
[2g\	(4C/	(4e/	(4cc\
.	4D/)	4f/)	24bn\LL
.	.	.	24aa\
.	.	.	24gg\JJ
.	.	.	24ff\LL
.	.	.	24ee\
.	.	.	24dd\JJ)
=55	=55	=55	=55
4g\_	8E'/L	8g'/L	8cc'\L
.	8F'/J	8A'/J 8d'/	8dd'\
24g/LL]	8G'/	(24Bn/LL 24d/	8g'\J
24GG/	.	24a/	.
24GG/JJ	.	24g/JJ	.
*clefF4	*	*	*
24GG/LL	8r	24f/LL	8r
24AA/	.	24e/	.
24BBn/JJ	.	24d/JJ)	.
=56	=56	=56	=56
(4C/	(4E/ [4G/	(4e/	24r
.	.	.	(24gg\LL
.	.	.	24ff\JJ
.	.	.	24ee\LL
.	.	.	24dd\
.	.	.	24cc\JJ
4D\	4F/) 4G/]	[4g/)	24bn\LL
.	.	.	24aa\
.	.	.	24gg\JJ
.	.	.	24ff\LL
.	.	.	24ee\
.	.	.	24dd\JJ)
=57	=57	=57	=57
8E'/L)	8G'/L	(24g/LL]	8cc'\L
.	.	24a/	.
.	.	24g/JJ	.
8F'/	8A'/J	24f/LL	8ddd'\
.	.	24e/	.
.	.	24d/JJ)	.
8G'/	(24G/LL	8e'/L	8gg'\
.	24A/	.	.
.	24G/JJ	.	.
8GG'/J	24F/LL	8dd'/J	8bbn'\J
.	24E/	.	.
.	24D/JJ)	.	.
=58	=58	=58	=58
8EE'/	8E'/	8g'/ 8a'/	8ccc#'\
8r	8r	8r	8r
4r	8r	8r	16.r
.	.	.	(32ee\LLK
.	(8g\	[8a/	16a\
.	.	.	16cc#\JJ
=59	=59	=59	=59
4r	8f\)	8a/]	8dd\)
.	8r	8r	8r
8r	8r	16.r	8r
.	.	(32d/LLK	.
(8GG/	(8D/	16G/	(8f/
.	.	16Bn/JJ	.
=60	=60	=60	=60
8CC/)	8C/)	8c/)	8e/)
8r	8r	8r	8r
8r	8r	8r	16.r
.	.	.	(32eee\LLK
*clefC4	*	*	*
[8a\	(8g\	(8ee\	16aa\
.	.	.	16ccc#\JJ
=61	=61	=61	=61
8a\]	8f\)	8dd\)	8ddd\)
8r	8r	8r	8r
8r	8r	16.r	8r
.	.	(32d/LLK	.
*clefF4	*	*	*
[8GG/	[8D/ [8G/	16G/	[8Bn/
.	.	16Bn/JJ	.
=62	=62	=62	=62
8GG/]	8D/] 8G/]	8d/)	8B/]
8r	8r	8r	8r
(4D\	4r	4r	4r
=63	=63	=63	=63
4EE/)	2r	2r	2r
(4BBn/	.	.	.
=64	=64	=64	=64
4AA/)	4r	2r	2r
(4E\	8r	.	.
.	16r	.	.
.	(32Bn/LLL	.	.
.	32c/JJJ	.	.
=65	=65	=65	=65
4FF#/)	(4d\)	2r	2r
(4C/	8..A/L	.	.
.	32Bn/Jkk)	.	.
=66	=66	=66	=66
8BBn/)	8G/	4r	4r
8r	8r	.	.
4r	4r	8r	(4gg\
.	.	16r	.
.	.	(32d/LLL	.
.	.	32e/JJJ	.
=67	=67	=67	=67
2r	2r	(4f/)	4a/)
.	.	8..c/L	(4ee\
.	.	32d/Jkk	.
=68	=68	=68	=68
24GG/LL	2r	4Bn/)	4dd\)
24BBn/	.	.	.
24D/JJ	.	.	.
24G\LL	.	.	.
24Bn\	.	.	.
24d\JJ	.	.	.
8f\	.	4r	(4aa\
16r	.	.	.
(32EE/LLL	.	.	.
32FF/JJJ	.	.	.
=69	=69	=69	=69
(4GG/)	2r	2r	4bn\)
8..DD/L	.	.	(4ff\
32EE-/Jkk)	.	.	.
=70	=70	=70	=70
4CC/	4r	24c/LL	4ee-\)
.	.	24e-/	.
.	.	24g/JJ	.
.	.	24cc\LL	.
.	.	24ee-\	.
.	.	24gg\JJ	.
4r	(4e-\	8ccc\	4r
.	.	16r	.
.	.	(32b-\LLL	.
.	.	32cc\JJJ	.
=71	=71	=71	=71
2r	4F/	(4dd-\)	2r
.	4c\	8..a/L	.
.	.	32b-/Jkk)	.
=72	=72	=72	=72
4r	4B-/)	(4g/	24g\LL
.	.	.	24b-\
.	.	.	24dd-\JJ
.	.	.	24gg\LL
.	.	.	24bb-\
.	.	.	24ddd-\JJ
[4EE-/	(4f\	4dd-\	8ddd-\
.	.	.	16r
.	.	.	(32ccc\LLL
.	.	.	32ddd-\JJJ
=73	=73	=73	=73
4EE-/_	4G/	4e-/	(4eee-\)
8.EE-/]	4d-\)	4b-\)	8..bb-\L
(32C/LLL	.	.	.
32D-/JJJ)	.	.	32ccc\Jkk)
=74	=74	=74	=74
4E-\	24C/LL	4a-/	4aa-\
.	24E-/	.	.
.	24A-/JJ	.	.
.	24c\LL	.	.
.	24e-\	.	.
.	24a-\JJ	.	.
8.BB-/L	8.g\L	4ee-\	4r
48C/Jkk	48a-\Jkk	.	.
48BB-/LLL	(48D-/LLL	.	.
48C/JJJ	48E-/JJJ	.	.
=75	=75	=75	=75
&((4D-\&)	(4F/)	4f/	2r
4AA-/)	8..C/L	4cc\	.
.	32D-/Jkk)	.	.
=76	=76	=76	=76
(4GG/	(8D-/L	4b-\	24b-\LL
.	.	.	24dd-\
.	.	.	24ff\JJ
.	8d-/J	.	24bb-\LL
.	.	.	24ddd-\
.	.	.	24fff\JJ
8..AAn/L	8.c\L	4ff\	8fff\
.	.	.	8r
.	48d\Jkk)	.	.
.	(48B-/LLL	.	.
32BB-/Jkk)	.	.	.
.	48c/JJJ	.	.
=77	=77	=77	=77
(4BB-/	4d-\)	&(4g/&)	(4ee-\
8..FF/L	8.A-/L	4e-/ 4dd-/	8.bb-\)
.	48B-/Jkk	.	(32ccc\LLL
.	(48A-/LLL	.	.
32GG/Jkk)	.	.	32ddd-\JJJ)
.	48B-/JJJ)	.	.
=78	=78	=78	=78
(4AA-/	(4c\	24cc/LL	(4eee-\
.	.	24e-/	.
.	.	24a-/JJ	.
.	.	24cc\LL	.
.	.	24ee-\	.
.	.	24aa-\JJ	.
4GG-/)	8..d-\L	8ee-\	8.bb-\L
.	.	16r	.
.	.	(32cc\LLL	48ccc\Jkk)
.	.	.	(48aan\LLL
.	32e-\Jkk)	32dd-\JJJ	.
.	.	.	48bb-\JJJ
=79	=79	=79	=79
24FF/LL	4e-\	(4ee-\)	4ccc\)
24AAn/	.	.	.
24C/JJ	.	.	.
24F\LL	.	.	.
24An\	.	.	.
24c\JJ	.	.	.
8f\	24F/LL	8..een\L	(8..b-\L 8..gg\
.	24An/	.	.
.	24c/JJ	.	.
8r	24f\LL	.	.
.	24an\	.	.
.	24cc\JJ	.	.
.	.	32ff\Jkk)	32cc\Jkk) 32aan\
=80	=80	=80	=80
16f\	16cc\	16a\ 16ff\	16cc\ 16aa\
32r	32r	32r	32r
(32C/LLK	(32c/LLK	(32cc/LLK	(32ccc\LLK
16FF/	16F/	16f/	16ff\
16AA/JJ	16A/JJ	16a/JJ	16aa\JJ
8C'/)	8c'\)	8cc'\)	8ccc'\)
8r	8r	8r	8r
=81	=81	=81	=81
2r	4r	2r	2r
.	16.r	.	.
.	(32c/LLK	.	.
.	16F/	.	.
.	16A/JJ)	.	.
=82	=82	=82	=82
8r	8B-'/	16.r	4r
.	.	(32ddn/LLK	.
8BB-/	8r	16f/	.
.	.	16b-/JJ	.
8AA/L	4r	8cc'\)	16.r
.	.	.	(32ee-\LLK
8FF/J	.	8r	16f\
.	.	.	16cc\JJ)
=83	=83	=83	=83
8r	8r	8r	(16.dd\LL
.	.	.	32ee-\JJk)
8BB-/	(16.B-/LL	(16.d/LL	[8ff\
.	32c/JJk)	32e-/JJk)	.
16r	16.d/LL	16.f/LL	16.ff\]
32r	.	.	.
(32GG/LLK	(32G/k	(32g/k	(32gg\LLK
16CC/	16C/	16c/	16cc\
16EE/JJ	16E/JJ	16en/JJ	16een\JJ
=84	=84	=84	=84
8GG'/)	8G'/)	8g'/)	8gg'\)
8r	8r	8r	8r
8r	4r	4r	16.r
.	.	.	(32g/LLK
8B-\	.	.	16c/
.	.	.	16e/JJ)
=85	=85	=85	=85
8A\L	8r	8r	16f/
.	.	.	32r
.	.	.	(32a/LLK
8F\	8A'/L	8c'/L	16c/
.	.	.	16f/JJ
8E\	8G'/	8c'/	16g/)
.	.	.	32r
.	.	.	(32b-/LLK
8C\J	8E'/J	8G'/J	16c/
.	.	.	16g/JJ)
=86	=86	=86	=86
8r	8r	8r	(16.a/LL
.	.	.	32b-/JJk)
4.F\	(16.A/LL	4.a/	4cc\
.	32B-/JJk)	.	.
.	4c\	.	.
.	.	.	8r
=87	=87	=87	=87
8r	8r	8r	(16.a/LL
.	.	.	32bn/JJk)
4.f\	4.a\	(16.aa\LL	4cc\
.	.	32bbn\JJk)	.
.	.	4ccc\	.
.	.	.	8r
=88	=88	=88	=88
8r	8r	4r	(16.a\LL
.	.	.	32bn\Jk)
[8F\L	(16.A/LL	.	8cc\J
.	32Bn/JJk)	.	.
8F\]	4c\	(16.aa\LL	(16.cc\LL
.	.	32bbn\JJk)	32dd\Jk)
8E\J	.	(16.cc\LL	8ee\J
.	.	32dd\JJk)	.
=89	=89	=89	=89
8r	8E'/L	8a\ 8ee\	24cc\LL
.	.	.	24dd\
.	.	.	24ee\JJ
16r	8A'/	8r	24ee\LL
.	.	.	24ee\
(32CC/LLL	.	.	.
.	.	.	24ee\JJ
32DD/JJJ	.	.	.
8EE'/)	8E'/	8G#/	24dd\LL
.	.	.	24cc\
.	.	.	24bn\JJ
8r	8G#'/J	8r	24b\LL
.	.	.	24b\
.	.	.	24b\JJ
=90	=90	=90	=90
8AA'/L	8E'/L	8r	24cc\LL
.	.	.	24bn\
.	.	.	24a\JJ
8EE'/	8G#'/	16r	24b/LL
.	.	.	24a/
.	.	(32c#/LLL	.
.	.	.	24g#/JJ
.	.	32d/JJJ	.
8AA'/J	8E'/	8e/)	24a\LL
.	.	.	24cc#\
.	.	.	24dd\JJ
8r	8c#'/J	8r	24ee\LL
.	.	.	24ff\
.	.	.	24gg\JJ
=91	=91	=91	=91
2r	16d\LL	24f/LL	8ff'\L
.	.	24g/	.
.	(32d\L	.	.
.	.	24a/JJ	.
.	32e\JJ	.	.
.	8f\J)	24a/LL	8ddd'\
.	.	24a/	.
.	.	24a/JJ	.
.	16e\LL	24g/LL	8aa'\
.	.	24f/	.
.	(32e\L	.	.
.	.	24e/JJ	.
.	32g\JJ	.	.
.	8a\J)	24e/LL	8ccc#'\J
.	.	24e/	.
.	.	24e/JJ	.
=92	=92	=92	=92
8r	24a\LL	24f/LL	8ddd'\L
.	24g\	24e/	.
.	24f\JJ	24d/JJ	.
16r	24g\LL	24e/LL	8aa'\
.	24f\	24d/	.
(32DD/LLL	.	.	.
.	24e\JJ	24c#/JJ	.
32EE/JJJ	.	.	.
8FF#/)	24f#\LL	24d/LL	8ddd'\J
.	24g\	24e/	.
.	24a\JJ	24f#/JJ	.
8r	24a\LL	24f#/LL	8r
.	24g\	24e/	.
.	24f#\JJ	24d/JJ	.
=93	=93	=93	=93
*k[f#]	*k[f#]	*k[f#]	*k[f#]
8DD'/L	24bn\LL	8d'/L	16r
.	24cc\	.	.
.	.	.	(32bbn\LLL
.	24dd\JJ	.	.
.	.	.	32cccn\JJJ
8GG'/	24dd\LL	8Bn'/	8ddd'\)
.	24dd\	.	.
.	24dd\JJ	.	.
8DD'/	24cc\LL	8f#'/	16r
.	24b\	.	.
.	.	.	(32aa\LLL
.	24a\JJ	.	.
.	.	.	32ccc\JJJ
8FF#'/J	24a\LL	8A'/J 8d'/	8ddd'\)
.	24a\	.	.
.	24a\JJ	.	.
=94	=94	=94	=94
8GG'/L	24b\LL	8B'/L 8d'/	16r
.	24a\	.	.
.	.	.	(32dd\LLL
.	24g\JJ	.	.
.	.	.	32ccc\JJJ
8DD'/	24a\LL	8c'/J 8d'/	8ddd'\)
.	24g\	.	.
.	24f#\JJ	.	.
8GG'/J	8g\	24b/LL	16r
.	.	24a/	.
.	.	.	(32dd\LLL
.	.	24g/JJ	.
.	.	.	32bb\JJJ
8r	8r	24g/LL	8ddd'\)
.	.	24a/	.
.	.	24b/JJ	.
=95	=95	=95	=95
8GG'/L	24G/LL	24dd\LL	24bb\LL
.	24A/	24cc\	24aa\
.	24B/JJ	24b\JJ	24gg\JJ
8DD'/	24A/LL	24a\LL	24ff#\LL
.	24B/	24b\	24gg\
.	24c/JJ	24cc\JJ	24aa\JJ
16GG'/Jk	24B\LL	24b/LL	24gg\LL
.	24c\	24a/	24aa\
(32e\LLL	.	.	.
.	24d\JJ	24g/JJ	24bb\JJ
32f#\JJJ	.	.	.
8g'\)	24B/LL	24g/LL	24bb\LL
.	24c/	24f#/	24aa\
.	24B/JJ	24g/JJ	24gg\JJ
=96	=96	=96	=96
8GG'/L	24g\LL	24b\LL	24ddd\LL
.	24a\	24cc\	24ccc\
.	24b\JJ	24dd\JJ	24bb\JJ
8DD'/	24cc\LL	24ee\LL	24aa\LL
.	24b\	24dd\	24bb\
.	24a\JJ	24ff#\JJ	24ccc\JJ
16GG'/Jk	24g\LL	24gg\LL	24bb\LL
.	24e-\	24a\	24ccc\
(32e\LLL	.	.	.
.	24d\JJ	24b\JJ	24ddd\JJ
32f#\JJJ	.	.	.
8g'\)	24B\LL	24b/LL	24ddd\LL
.	24c\	24a/	24ccc\
.	24d\JJ	24g/JJ	24bb\JJ
=97	=97	=97	=97
8C'/L	24E/LL	24ee\LL	24g/LL
.	24Fn/	24dd\	24d/
.	24G/JJ	24cc\JJ	24e/JJ
8GG'/	24A-/LL	24b\LL	24fn/LL
.	24G/	24cc\	24e/
.	24F/JJ	24dd\JJ	24d/JJ
16C'/Jk	24G/LL	24cc\LL	24e/LL
.	24F/	24dd\	24d/
(32A\LLL	.	.	.
.	24E/JJ	24ee\JJ	24c/JJ
32B\JJJ	.	.	.
8c'\)	24E/LL	24ee\LL	24c/LL
.	24F/	24dd\	24d/
.	24G/JJ	24cc\JJ	24e/JJ
=98	=98	=98	=98
24c\LL	8cc\L	24e/LL	24gg\LL
24c\	.	24d/	24ffn\
24c\JJ	.	24c/JJ	24ee\JJ
24c\LL	8g\	24B/LL	24dd\LL
24c\	.	24c/	24ee\
24c\JJ	.	24d/JJ	24ff\JJ
24c\LL	16cc\Jk	24c/LL	24ee\LL
24c\	.	24d/	24ff\
.	(32cc\LLL	.	.
24c\JJ	.	24e/JJ	24gg\JJ
.	32dd\JJJ	.	.
24c\LL	8ee'\)	24e/LL	24gg\LL
24c\	.	24d/	24ff\
24c\JJ	.	24c/JJ	24ee\JJ
=99	=99	=99	=99
8c'\L	24e\LL	24cc\LL	24eee\LL
.	24fn\	24dd\	24ddd\
.	24g\JJ	24ee\JJ	24ccc\JJ
8G'\	24a-\LL	24ffn\LL	24bb\LL
.	24g\	24ee\	24ccc\
.	24f\JJ	24dd\JJ	24ddd\JJ
16c'\Jk	24g\LL	24ee\LL	24ccc\LL
.	24f\	24dd\	24ddd\
(32AA/LLL	.	.	.
.	24e\JJ	24cc\JJ	24eee\JJ
32BB/JJJ	.	.	.
8C'/)	24e\LL	24cc\LL	24eee\LL
.	24f\	24dd\	24ddd\
.	24g\JJ	24ee\JJ	24ccc\JJ
=100	=100	=100	=100
24C/LL	24G/LL	24e/LL	24ggg\LL
24C/	24G/	24d/	24fffn\
24C/JJ	24G/JJ	24c/JJ	24eee\JJ
24GG/LL	24Fn/LL	24a-/LL	24ddd\LL
24GG/	24E/	24g/	24eee\
24GG/JJ	24D/JJ	24fn/JJ	24fff\JJ
24C/LL	24E/LL	24g/LL	24eee\LL
24CC/	24D/	24f/	24fff\
24CC/JJ	24C/JJ	24e/JJ	24ggg\JJ
24DD-/LL	24B-/LL	24ee\LL	24ggg\LL
24DD-/	24B-/	24ffn\	24aaa\
24DD-/JJ	72B-/JJk	24gg\JJ	24bbb-\JJ
.	(72G/LLL	.	.
.	72A/JJJ	.	.
=101	=101	=101	=101
*k[b-]	*k[b-]	*k[b-]	*k[b-]
24DD-/LL	4B-/)	24gg\LL	8bbb-\
24DD-/	.	24aa\	.
24DD-/JJ	.	24bb-\JJ	.
24DD-/LL	.	24bb-\LL	8r
24DD-/	.	24bb-\	.
24DD-/JJ	.	24bb-\JJ	.
24DD-/LL	(8..F/L	[4b-\	[4bb-\
24DD-/	.	.	.
24DD-/JJ	.	.	.
24DD-/LL	.	.	.
24DD-/	.	.	.
24DD-/JJ	.	.	.
.	32G/Jkk	.	.
=102	=102	=102	=102
24DD-/LL	8E/)	(8b-/L]	(8bb-\L]
24DD-/	.	.	.
24DD-/JJ	.	.	.
24DD-/LL	8r	16.f/L	16.ff\L
24DD-/	.	.	.
24DD-/JJ	.	.	.
.	.	32g/JJk	32gg\JJk
16CC/LK	16.r	16e/LK)	8ee\)
32r	.	32r	.
(32BB-/LK	(32B-/LLK	(32b-/LK	.
16FF/	16F/	16f/	8r
16GG/JJ	16G/JJ	16g/JJ	.
=103	=103	=103	=103
8EE/)	8E/)	8e/)	4r
8r	8r	8r	.
8r	16.r	4r	16.r
.	(32G/LLK	.	(32g/LLK
8BB-/	16C/	.	16c/
.	16E/JJ	.	16e/JJ
=104	=104	=104	=104
8AA/L	16F'/LK)	16.r	16f'/LK)
.	32r	.	32r
.	(32A/LK	(32aa\LLK	(32a/LK
8FF/	16C/	16cc\	16c/
.	16F/JJ	16ff\JJ	16f/JJ
8EE/	16G'/LK)	8gg'\)	16g'/LK)
.	32r	.	32r
.	(32B-/LK	.	(32b-/LK
8CC/J	16C/	8r	16c/
.	16G/JJ)	.	16g/JJ)
=105	=105	=105	=105
8r	(16.A/LL	8r	16.a/LL
.	32B-/JJk)	.	32b-/JJk
(16.F\LL	[8c/	(16.aa\LL	[8cc\
32G\Jk)	.	32bb-\JJk)	.
8A'\J	16c\LL]	8ccc\	16cc\LL]
.	(16f\	.	(16ff\
8BB-/	16e\	8r	16ee\
.	16d\JJ	.	16dd\JJ
=106	=106	=106	=106
8r	16c'\)	2r	16cc'\)
.	(16d/LL	.	(16dd\LL
8BB-/L	16B-/	.	16b-\
.	16G/JJ	.	16g\JJ
8C/	16F'/)	.	16f'/)
.	(16G/LL	.	(16g/LL
8CC/J	16E/	.	16e/
.	16C/JJ)	.	16c/JJ)
=107	=107	=107	=107
*clefC4	*	*	*
8r	(16.A/LL	8r	(16.a/LL
.	32B-/Jk)	.	32b-/JJk)
(16.f\LL	[8c/J	(16.a/LL	4cc\
32g\JJk	.	32b-/JJk	.
8a\L)	16c\LK]	16cc\LK)	.
.	32r	32r	.
.	(32f\LK	(32ff\LK	.
8B-\J	16e\	16ee\	8r
.	16d\JJ	16dd\JJ	.
=108	=108	=108	=108
*clefF4	*	*	*
16.r	16c/LK)	16cc\)	16.r
.	32r	32r	.
32GG/LLK	(32D/LK	(32dd\LLK	(32ddd\LLK
(16GG/	16B-/	16b-\	16bb-\
16BB-/JJ	16d/JJ	16g\JJ	16gg\JJ
16C/)	16A/)	16f/)	16ff'\)
32r	32r	32r	32r
(32CC/LLK	(32E/LLK	(32b-/LLK	(32gg\LLK
16EE/	16G/	16g/	16ee\
16GG/JJ	16e/JJ	16B-/JJ	16cc\JJ
=109	=109	=109	=109
8FF/)	8A\) 8f\	8A/)	8ff\)
8r	8r	8r	8r
(8BBn/L	(8Bn/L	(8Bn/L	(8bn\L
8C/J	8c/J	8c/J	8cc\J
=110	=110	=110	=110
8CC#/L	8C#/L	8c#/L	8c#/L
8DD/	8D/	8d/	8d/
8AA/	8A/	8A/	8a/
8BB-/J	8B-/J	8B-/J	8b-/J
=111	=111	=111	=111
8AA/L	8A/L	8A/L	8a\L
8GG/	8G/	8G/	8g\
8C#/	8c#/	8c#/	8cc#\
8D/J	8d/J	8d/J	8dd\J
=112	=112	=112	=112
8DD#/L	8D#/L	8d#/L	8d#/L
8EE/	8E/	8e/	8e/
8C/	8c/	8c/	8cc/
8BB-/J)	8B-/J)	8B-/J)	8b-/J)
=113	=113	=113	=113
(8BB-/L	(8B-\L	(8B-/L	(8b-/L
8AA/J)	8A\)	8A/J)	8a/J)
4r	(8e\	8r	4r
.	8f\J	16r	.
.	.	(32cc\LLL	.
.	.	32dd\JJJ	.
=114	=114	=114	=114
2r	8F#/L	(4ee-\)	2r
.	8G/J	.	.
.	8d\L	8..b-\L	.
.	8e-\J	.	.
.	.	32cc\Jkk)	.
=115	=115	=115	=115
4r	8d\L	8a/	4r
.	8c\J)	8r	.
8r	4r	(8f#/L	(8ff#\L
16r	.	8g/J	8gg\J
(32D\LLL	.	.	.
32E-\JJJ	.	.	.
=116	=116	=116	=116
(4F\)	2r	8G#/L	8g#\L
.	.	8A/J	8a\
8..C/L	.	8f/L	8ff\
.	.	8e-/J)	8ee-\J)
&(32D/Jkk&))	.	.	.
=117	=117	=117	=117
4BB-/	4r	(8e-/L	(8ee-\L
.	.	8d/J)	8dd\J)
(8FF/L	(8F/L	(8f/L	(8ff\L
8EE-/J)	8E-/J)	8e-/J)	8ee-\J)
=118	=118	=118	=118
(8EE-/L	(8E-/L	(8e-/L	(8ee-\L
8DD/	8D/	8d/	8dd\
8C/	8c/	8cc/	8ccc\
8BB-/J	8B-/J	8b-/J	8bb-\J
=119	=119	=119	=119
8DD/L	8F#/L	8a/L	8aa\L
8EE-/J)	8G/J)	8g/J)	[8gg\J)
(8EE-/L	(8G/L	(8B-/L	(24gg\LL]
.	.	.	24ff\
.	.	.	24ee-\JJ
8FF/J)	8E-/J)	8A/J)	24dd\LL
.	.	.	24cc\
.	.	.	24ee-\JJ)
=120	=120	=120	=120
8FF'/L	8C'/L	8e-'/L	(24b-\LL
.	.	.	24a\
.	.	.	24cc\JJ
8FF'/	8c'/	8e-'/	24f/LL
.	.	.	24a/
.	.	.	24b-/JJ
8FF'/	8c'/	8e-'/	24cc\LL
.	.	.	24dd\
.	.	.	24ee-\JJ
8FF'/J	8c'/J	8e-'/J	24ff\LL
.	.	.	24gg\
.	.	.	24aa\JJ)
=121	=121	=121	=121
8GG/	8B-/	8G/ 8en/	8bb-'\L
8r	8r	8r	(16.aa\L
.	.	.	32ccc\JJk)
[4CC/	[4E/	8r	8bb-'\L
.	.	[8G/	8bb-'\J
=122	=122	=122	=122
2CC/_	8E/L]	8G/L]	[2bb-\
.	(16.D#/L	(16.f#/L	.
.	32F/JJk)	32a/JJk)	.
.	8E'/L	8g'/L	.
.	8E'/J	8g'/J	.
=123	=123	=123	=123
2CC/_	8E/L	8g/L	8bb-\L]
.	(16.G/L	(16.e/L	(16.gg\L
.	32E/JJk)	32g/JJk)	32bb-\JJk)
.	8F'/L	8f'/L	8aa'\L
.	8F'/J	8c'/J	8aa-'\J
=124	=124	=124	=124
8CC/L]	(4F/ [4G/	(4Bn/	(4dd\
(16.BBn/L	.	.	.
32D/JJk)	.	.	.
8C'/L	4E/) 4G/]	4B-/)	4gg\)
8C'/J	.	.	.
=125	=125	=125	=125
16F\LL	16F/LL	16A/LL	[4cc\
16F\	16c/	16a/	.
16F\	16c/	16a/	.
16F\JJ	16c/JJ	16a/JJ	.
8F\	8f\	8a/	16cc\LL]
.	.	.	(16ff\
8r	8r	8r	16ee\
.	.	.	16ff\JJ
=126	=126	=126	=126
2r	2r	4r	16cc'\LL)
.	.	.	(16dd\
.	.	.	16a\
.	.	.	16b-\JJ
.	.	16r	16a'/LL)
.	.	(16bb-\LL	(16b-/
.	.	16ff\	16f/
.	.	16gg\JJ)	16g/JJ)
=127	=127	=127	=127
16D\LL	16F/LL	[4aa\	16a/LL
16d\	16f/	.	16a/
16d\	16f/	.	16a/
16d\JJ	16f/JJ	.	16a/JJ
8d\	8f\	16aa\LL]	8a/
.	.	(16ddd\	.
8r	8r	16ccc#\	8r
.	.	16ddd\JJ	.
=128	=128	=128	=128
4r	4r	16aa'\LL)	4r
.	.	(16bb-\	.
.	.	16ff\	.
.	.	16gg\JJ	.
16r	16r	16aa'\LL)	16r
16D\LL	16A/LL	(16ff\	(16a/LL
16D\	16Bn/	16gg\	16f/
16D\JJ	16B/JJ	16ff\JJ)	16g/JJ)
=129	=129	=129	=129
8C/	2c\	[4ee\	(16g/LL
.	.	.	16e/
8r	.	.	16g/)
.	.	.	16g'/JJ
4r	.	16ee/LL]	(16g/LL
.	.	(16G/	16e/
.	.	16e/J)	16cc/J)
.	.	32r	32r
.	.	32e'/Jkk	32cc'/Jkk
=130	=130	=130	=130
2r	2G/	(16d/LL	(4cc\
.	.	16g/	.
.	.	16dd/)	.
.	.	16dd'/JJ	.
.	.	(16dd\LL	4bn\)
.	.	16g\	.
.	.	16ff\J)	.
.	.	32r	.
.	.	32ff'\Jkk	.
=131	=131	=131	=131
2C/	4r	(4ff\	16r
.	.	.	(16c/LL
.	.	.	16g/)
.	.	.	16g'/JJ
.	16r	4ee\)	(16g/LL
.	(16C/LL	.	16c/
.	16G/J)	.	16b-/J)
.	32r	.	32r
.	32G'/Jkk	.	32b-'/Jkk
=132	=132	=132	=132
2FF/	(16G/LL	4r	(4b-\
.	16C/	.	.
.	16F/)	.	.
.	16F'/JJ	.	.
.	(16F/LL	16r	[4a/)
.	16C/	(16A/LL	.
.	16A/J)	16f/J)	.
.	32r	32r	.
.	32A'/Jkk	32f'/Jkk	.
=133	=133	=133	=133
(4FF/	2F/ 2A/	[4f/	16a/LL]
.	.	.	(16A/
.	.	.	16a/)
.	.	.	16a/JJ
4CC#/	.	16f\LL]	16a\LL
.	.	(16f\	(16a\
.	.	16ff\J)	16aa\J)
.	.	32r	32r
.	.	32ff'\Jkk	32aa'\Jkk
=134	=134	=134	=134
8CC/L	(4E-/	(8ff#\L	[4aa\
8C/	.	8f#\	.
8BBn/	8D/L	8g\	(16aa\LL]
.	.	.	16gg\
[8BB-/J)	8G/J)	8e\J)	16eee\
.	.	.	16ddd\JJ)
=135	=135	=135	=135
8BB-/L]	16r	16r	(16gg\LL
.	16F'/LL	16c'/LL	16ff\)
8AA'/J	16C'/	16f'/	(16ddd\
.	16C'/JJ	16f'/JJ	16ccc\JJ)
8BB-'/L	16r	16r	(16ff\LL
.	16C'/LL	16G'/LL	16ee\)
8C'/J	16G'/	16e'/	(16ddd\
.	16G'/JJ	16e'/JJ	16ccc\JJ)
=136	=136	=136	=136
*clefC4	*	*	*
8F'\L	4.A/	24ff\LL	[2ccc\
.	.	24cc\	.
.	.	24dd\JJ	.
8A'\	.	24cc\LL	.
.	.	24a\	.
.	.	24b-\JJ	.
8c'\	.	24a/LL	.
.	.	24f/	.
.	.	24g/JJ	.
8f'\J	24a\LL	8A/ 8f/	.
.	24g\	.	.
.	24f\JJ	.	.
=137	=137	=137	=137
8e'\L	24b-\LL	8r	8ccc'\L]
.	24g\	.	.
.	24e\JJ	.	.
8g'\J	24B-/LL	8G/ 8e/	8eee'\J
.	24G/	.	.
.	24E/JJ	.	.
4b-\	8C/	24c/LL	8ggg'\L
.	.	24e/	.
.	.	24g/JJ	.
.	8r	24cc\LL	8bbb-'\J
.	.	24ee\	.
.	.	24gg\JJ	.
=138	=138	=138	=138
4r	24g\LL	24bb-\LL	8cc'\L
.	24e\	24gg\	.
.	24f\JJ	24aa\JJ	.
.	24B-/LL	24gg\LL	8ee'\J
.	24G/	24ee\	.
.	24A/JJ	24ff\JJ	.
8r	24G/LL	24ee\LL	8gg'\L
.	24E/	24cc\	.
.	24F/JJ	24dd\JJ	.
24e\LL	8E/	24g/LL 24cc/	8bb-'\J
24d\	.	24f/	.
24c\JJ	.	24e/JJ	.
=139	=139	=139	=139
24f\LL	4r	4r	8aa'\L
24c\	.	.	.
24A\JJ	.	.	.
*clefF4	*	*	*
24F/LL	.	.	8ccc'\J
24C/	.	.	.
24AA/JJ	.	.	.
8FF/	8f'\L	24a\LL	[4fff\
.	.	24cc\	.
.	.	24ee-\JJ	.
8r	8cc'\J	24aa\LL	.
.	.	24ccc\	.
.	.	24eee-\JJ	.
=140	=140	=140	=140
2r	24b-\LL	8ddd'\L	4.fff\]
.	24f\	.	.
.	24g\JJ	.	.
.	24f\LL	8dd'\	.
.	24d\	.	.
.	24e-\JJ	.	.
.	24d\LL	8ff'\	.
.	24B-\	.	.
.	24c\JJ	.	.
.	8B-/	8bb-'\J	24ddd\LL
.	.	.	24ccc\
.	.	.	24bb-\JJ
=141	=141	=141	=141
8FF'/L	4r	8aa'\L	24eee-\LL
.	.	.	24ccc\
.	.	.	24aa\JJ
8AA'/	.	8ccc'\J	24ee-\LL
.	.	.	24cc\
.	.	.	24a\JJ
8C'/	24F/LL	4eee-\	8f/
.	24A/	.	.
.	24c/JJ	.	.
8F'/J	24f\LL	.	8r
.	24a\	.	.
.	24cc\JJ	.	.
=142	=142	=142	=142
8A'\L	24ee-\LL	4r	8ff'\L
.	24cc\	.	.
.	24dd\JJ	.	.
8c'\J	24cc\LL	.	8aa'\
.	24a\	.	.
.	24b-\JJ	.	.
4e-\	24a\LL	8r	8ccc'\
.	24f\	.	.
.	24g\JJ	.	.
.	8f\	24aa\LL	8eee-'\J
.	.	24gg\	.
.	.	24ff\JJ	.
=143	=143	=143	=143
8F'\L	4r	24bb-\LL	8ddd'\L
.	.	24ff\	.
.	.	24dd\JJ	.
8B-'\J	.	24b-/LL	8fff'\J
.	.	24f/	.
.	.	24d/JJ	.
4d\	24b-\LL	8B-/	[4bbb-\
.	24f\	.	.
.	24d\JJ	.	.
.	24B-/LL	8r	.
.	24F/	.	.
.	24D/JJ	.	.
=144	=144	=144	=144
8CC'/L	8E'/L	4r	24bbb-\LL]
.	.	.	24gg\
.	.	.	24ee\JJ
8EE'/	8G'/J	.	24b-/LL
.	.	.	24g/
.	.	.	24e/JJ
8GG'/	4E/ 4G/	8e'/L	24B-/LL
.	.	.	24e/
.	.	.	24g/JJ
8C'/J	.	8g'/J	24b-\LL
.	.	.	24ee\
.	.	.	24gg\JJ
=145	=145	=145	=145
*clefC4	*	*	*
24c\LL	24g\LL	24e/LL	24bb-\LL
24c\	24d\	24f/	24gg\
24c\JJ	24e\JJ	24g/JJ	24ee\JJ
24f\LL	24f\LL	24a/LL	24cc\LL
24f\	24g\	24b-/	24ff\
24f\JJ	24f\JJ	24a/JJ	24aa\JJ
24f\LL	24f\LL	24b-\LL	24aa\LL
24f\	24b-\	24cc\	24ff\
24f\JJ	24b-\JJ	24dd\JJ	24dd\JJ
24f\LL	24b-\LL	24ee-\LL	24b-\LL
24e-\	24g\	24b-\	24ee-\
24e-\JJ	24g\JJ	24b-\JJ	24gg\JJ
=146	=146	=146	=146
24en\LL	24g\LL	24a\LL	24gg\LL
24e\	24g\	24bn\	24ee\
24e\JJ	24g\JJ	24cc#\JJ	24cc#\JJ
24e\LL	24g\LL	24a/LL	24a\LL
24d\	24f\	24a/	24dd\
24d\JJ	24f\JJ	24a/JJ	24ff\JJ
24G\LL	24d\LL 24f\	24b\LL	24ff\LL
24A\	24d\ 24f\	24ccn\	24dd\
24Bn\JJ	24d\JJ 24f\	24dd\JJ	24bn\JJ
24c\LL	24e\LL	24g/LL	24ee\LL
24d\	24f\	24g/	24ccn\
24c\JJ	24e\JJ	24g/JJ	24g\JJ
=147	=147	=147	=147
*clefF4	*	*	*
[2GG#/	[2G#/	(8f/L	(8ff\L
.	.	8c/	8cc\
.	.	8f/)	8ff\)
.	.	8d'/J	8dd'\J
=148	=148	=148	=148
(8GG#/L]	(8G#/L]	(4c/	(4.cc\
8AA/	8A/	.	.
8BB-/)	8B-/)	16g/LL	.
.	.	16c/	.
8GGn'/J	8Gn'/J	16d/	16dd\LL
.	.	16e/JJ)	16ee\JJ)
=149	=149	=149	=149
(8FF/L	(8F\L	(8f/L	(8ff\L
8E/	8e\	8c#/	8gg\
8G/)	8g\)	8cc#/)	8aa\)
8D'/J	8d'\J	8ff'/J	8aa'\J
=150	=150	=150	=150
(8C#\L	(8c#\L	(8ee\L	(8aa\L
8A\	8e\	8cc#\	8gg\
8d\)	8f\)	8a\	8ff\
8G#'\J	8f'\J	8bn\J)	8dd\J)
=151	=151	=151	=151
8A\L	16f'\LL	16a'/LL	(16dd\LL
.	16e'\	16a'/	16cc#\)
8A\	16e'\	16g'/	16cc#'\
.	16e'\JJ	16g'/JJ	16dd'\JJ
8B-\	16e\LL	16g/LL	(16dd\LL
.	16e\	16g/	16ccn\)
8B-\J	16e\	16g/	16cc'\
.	16e\JJ	16g/JJ	16cc'\JJ
=152	=152	=152	=152
8c\L	16A/LL	16f/LL	(16cc\LL
.	16F/	16f/	16a\)
8c\	16F/	16f/	16a'\
.	16F/JJ	16f/JJ	16b-'\JJ
8d\	16F/LL	16f/LL	16b-'\LL
.	16F/	16f/	16bn'\
8d\J	16F/	16f/	16b'\
.	16f/JJ	16a/JJ	16cc'\JJ
=153	=153	=153	=153
*clefC4	*	*	*
8r	24a\LL	24ff\LL	24cc\LL
.	24a\	24ff\	24cc#\
.	24a\JJ	24ff\JJ	24cc#\JJ
24a\LL	24f\LL	24ff\LL	24cc#\LL
24a\	24f\	24ff\	24dd\
24a\JJ	24f\JJ	24ff\JJ	24ddd\JJ
8r	24f\LL	24b-\LL 24ff\	24ddd\LL
.	24f\	24b-\ 24ff\	24ccc#\
.	24f\JJ	24b-\JJ 24ff\	24ccc#\JJ
24B-\LL	24f\LL	24b-\LL 24ff\	24ccc#\LL
24B-\	24f\	24b-\ 24ff\	24cccn\
24B-\JJ	24f\JJ	24b-\JJ 24ff\	24ccc\JJ
=154	=154	=154	=154
8r	24f\LL	24a\LL 24ff\	24ccc\LL
.	24f\	24a\ 24ff\	24aa\
.	24f\JJ	24a\JJ 24ff\	24bb-\JJ
24c\LL	24f\LL	24a\LL 24ff\	24bb-\LL
24c\	24f\	24a\ 24ff\	24bbn\
24c\JJ	24f\JJ	24a\JJ 24ff\	24ccc\JJ
24d\LL	24f\LL	24b-\LL 24ff\	(24ccc\LL
24d\	24f\	24b-\ 24ff\	24ddd\
24d\JJ	24f\JJ	24b-\JJ 24ff\	24ccc\JJ
24e\LL	24g\LL 24b-\	24cc\LL	24bb-\LL
24e\	24g\ 24b-\	24cc\	24aa\
24e'\JJ	24g\JJ 24b-\	24cc\JJ	24gg\JJ)
=155	=155	=155	=155
*clefF4	*	*	*
(4F\	(4A/	[2cc\	4ff\
4G\)	4B-/)	.	(24ee\LL
.	.	.	24ddd\
.	.	.	24ccc\JJ
.	.	.	24bb-\LL
.	.	.	24aa\
.	.	.	24gg\JJ)
=156	=156	=156	=156
8A'\L	8c'\L	8cc'/L]	8ff'\L
8B-'\J	8d'\	8g'/J	8gg'\
(24c\LL	8e'\	(24G/LL	8cc'\J
24D\	.	24f/	.
24C\JJ	.	24e/JJ	.
24BB-/LL	[8cc\J	24d/LL	8r
24AA/	.	24c/	.
24GG/JJ)	.	&(24B-/JJ&))	.
=157	=157	=157	=157
(4FF/	4cc\_	(4A/	24r
.	.	.	(24ccc\LL
.	.	.	24bb-\JJ
.	.	.	24aa\LL
.	.	.	24gg\
.	.	.	24ff\JJ
4GG/)	(24cc\LL]	4B-/)	24ee\LL
.	24dd\	.	24ddd\
.	24cc\JJ	.	24ccc\JJ
.	24b-\LL	.	24bb-\LL
.	24a\	.	24aa\
.	24g\JJ)	.	24gg\JJ)
=158	=158	=158	=158
8AA'/L	(24f\LL	8c'/L	8ff'\L
.	24a\	.	.
.	24g\JJ	.	.
8BB-'/	24f\LL	8d'/J	8gg'\
.	24e\	.	.
.	24d\JJ)	.	.
8C'/J	(24c\LL	24G/LL	8cc'\
.	24d\	(24dd/	.
.	24c\JJ	24cc/JJ	.
8c'\	24B-/LL	24b-/LL	8ee'\J 8eee'\
.	24A/	24a/	.
.	24G/JJ)	24g/JJ)	.
=159	=159	=159	=159
8AA'/	8C'/ 8c'/	8cc'\	8ff#'\ 8fff#'\
8r	8r	8r	8r
4r	8r	8r	16.r
.	.	.	(32aa\LLK
.	(8a\	(8c/ 8d/	16dd\
.	.	.	16ff#\JJ
=160	=160	=160	=160
4r	8g'\)	8B-'/) 8d'/	8gg'\)
.	8r	8r	8r
8r	16.r	16.r	4r
.	(32B-/LLK	(32g/LLK	.
(8C/	16E/	16c/	.
.	16G/JJ	16e/JJ	.
=161	=161	=161	=161
8FF'/)	8C'/) 8A'/	8f'/)	4r
8r	8r	8r	.
4r	8r	8r	16r
.	.	.	32r
.	.	.	(32aa\LLK
.	(8cc\	[8dd\	16dd\
.	.	.	16ff#\JJ
=162	=162	=162	=162
4r	8b-'\)	8dd'\]	8gg'\)
.	8r	8r	8r
8r	16.r	16.r	4r
.	(32B-/LLK	(32g/LLK	.
(8C/	16E/	16c/	.
.	16G/JJ)	16e/JJ	.
=163	=163	=163	=163
8CC'/)	8E'/ 8G'/	8g'/)	4r
8r	8r	8r	.
4r	4r	(8f#/L	8.r
.	.	8g/J	.
.	.	.	(32dd\LLL
.	.	.	32ee\JJJ)
=164	=164	=164	=164
4r	2r	8G#/L	4ff#\
.	.	8A/	.
8r	.	8e/	8..cc\L
16r	.	8f/J	.
(32EE/LLL	.	.	.
32FF#/JJJ	.	.	&(32dd\Jkk&)
=165	=165	=165	=165
8GG/)	4r	8e/L	8bn\
8r	.	8d/J)	8r
8.r	(8c#\L	4r	4r
.	8d\J	.	.
(32AA/LLL	.	.	.
32BB-/JJJ	.	.	.
=166	=166	=166	=166
(4C/)	8D#/L	2r	2r
.	8E/	.	.
8..GG/L	8c/	.	.
.	8B-/J)	.	.
32AA/Jkk)	.	.	.
=167	=167	=167	=167
8FF/	(8B-/L	4r	4r
16r	8A/J)	.	.
(32CC/LLL	.	.	.
32DD/JJJ	.	.	.
8EE/)	4r	8r	(8ff#\L
8r	.	16r	8gg\J
.	.	(32d/LLL	.
.	.	32e/JJJ	.
=168	=168	=168	=168
2r	4r	(4f/)	8g#/L
.	.	.	8a/J
.	8.r	8..c/L	8ee\L
.	.	.	8ff\J
.	(32e\LLL	.	.
.	32f\JJJ	32d/Jkk)	.
=169	=169	=169	=169
4r	4g\)	8.Bn/	8ee\L
.	.	.	8dd\J)
.	.	(32dd\LLL	.
.	.	32ee\JJJ	.
(8c#\L	4r	4ff\)	8.r
8d\J	.	.	.
.	.	.	(32gg\LLL
.	.	.	32aa\JJJ
=170	=170	=170	=170
8D#\L	2r	4r	(4bb-\)
8E\	.	.	.
8c\	.	24e/LL	8.ff\L
.	.	24g/	.
.	.	24cc/JJ	.
8B-\J)	.	24ee\LL	.
.	.	24gg\	.
.	.	.	48gg\LL)
.	.	24ccc\JJ	(48ff\
.	.	.	48gg\JJJ
=171	=171	=171	=171
(8E\L	2r	8ccc\	(4aa\)
8F\	.	8r	.
8c\	.	24f/LL	8.ee\L
.	.	24a/	.
.	.	24cc/JJ	.
8A\J)	.	24ff\LL	.
.	.	24aa\	.
.	.	.	48ff\Jkk)
.	.	24ccc\JJ	(48gg\LLL
.	.	.	48aa\JJJ
=172	=172	=172	=172
8r	24C/LL	(8d#/L	(4bb-\)
.	24E/	.	.
.	24G/JJ	.	.
16r	24c\LL	8e/	.
.	24e\	.	.
*clefC4	*	*	*
(32c\LLL	.	.	.
.	24g\JJ	.	.
32d\JJJ	.	.	.
8e\)	8b-\	8cc/	8.ff\L
8r	8r	8b-/J)	.
.	.	.	48gg\Jkk)
.	.	.	(48ff\LLL
.	.	.	48gg\JJJ
=173	=173	=173	=173
*clefF4	*	*	*
24CC/LL	8r	(8e/L	(4aa\)
24FF/	.	.	.
24AA/JJ	.	.	.
24C\LL	16r	8f/	.
24F\	.	.	.
.	(32f\LLL	.	.
24A\JJ	.	.	.
.	32g\JJJ	.	.
8A\	8.a\)	8cc/	8..ee\L
8r	.	16a/Jk)	.
.	(32G/LLL	(32g/LLL	.
.	32A/JJJ	32a/JJJ	32ff\Jkk)
=174	=174	=174	=174
24CC/LL	4B-/)	4b-\)	(8dd#\L
24EE/	.	.	.
24GG/JJ	.	.	.
24C\LL	.	.	8ee\
24E\	.	.	.
72G\JJk	.	.	.
(72G\LLL	.	.	.
72A\JJJ	.	.	.
8B-\)	(8.F/L	(8.f/L	8ccc\
8r	.	.	8bb-\J)
.	48G/Jkk)	48g/Jkk)	.
.	(48F/LLL	(48f/LLL	.
.	48G/JJJ	48g/JJJ	.
=175	=175	=175	=175
24CC/LL	4A/)	4a/)	(8ee\L
24FF/	.	.	.
24AA/JJ	.	.	.
24C\LL	.	.	8ff\
24F\	.	.	.
72A\JJk	.	.	.
(72F\LLL	.	.	.
72G\JJJ	.	.	.
8A\)	(8.E/L	(8.e/L	8ccc\
16r	.	.	16aa\Jk)
(32G\LLL	48F/Jkk)	48f/Jkk)	(32gg\LLL
.	(48G/LLL	(48g/LLL	.
32A\JJJ	.	.	32aa\JJJ
.	48A/JJJ	48a/JJJ	.
=176	=176	=176	=176
16B-'\)	16B-'/)	16b-'\)	16bb-'\)
(32e\LLL	(32e\LLL	(32e/LLL	(32ee\LLL
32f\JJJ	32f\JJJ	32f/JJJ	32ff\JJJ
16g'\)	16g'\)	16g'/)	16gg'\)
(32c\LLL	(32c\LLL	(32c/LLL	(32cc\LLL
32d\JJJ	32d\JJJ	32d/JJJ	32dd\JJJ
16e'\)	16e'\)	16e'/)	16ee'\)
(32G\LLL	(32G/LLL	(32g/LLL	(32g/LLL
32A\JJJ	32A/JJJ	32a/JJJ	32a/JJJ
16B-'\)	16B-'/)	16b-'\)	16b-'\)
(32E\LLL	(32E/LLL	(32e/LLL	(32e/LLL
32F\JJJ)	32F/JJJ)	32f/JJJ)	32f/JJJ)
=177	=177	=177	=177
16G'\	16G'/	16g'/	16g'/
32C/LLL	32C/LLL	32c/LLL	32c/LLL
32D/JJJ	32D/JJJ	32d/JJJ	32d/JJJ
&(16E'\&)	&(16E'/&)	&(16e'/&)	&(16e'/&)
32GG/LLL	32G/LLL	32G/LLL	32G/LLL
32AA/JJJ	32A/JJJ	32A/JJJ	32A/JJJ
&(24BB-/LL&)	&(24B-\LL&)	&(8B-'/&)	&(8B-'/&)
24D/	24d\	.	.
24C/JJ	24c\JJ	.	.
24BB-/LL	24B-/LL	8r	8r
24AA/	24A/	.	.
24GG/JJ	24G/JJ	.	.
=178	=178	=178	=178
(4FF/	(4F/	24r	2r
.	.	(24cc\LL	.
.	.	24b-\JJ	.
.	.	24a/LL	.
.	.	24g/	.
.	.	24f/JJ	.
4GG/)	24E/LL	24e/LL	.
.	24d/	24dd/	.
.	24c/JJ	24cc/JJ	.
.	24B-/LL	24b-/LL	.
.	24A/	24a/	.
.	24G/JJ)	24g/JJ)	.
=179	=179	=179	=179
8AA'/L	8F'/L	8f'/L	4r
8BB-'/	8G'/	8g'/J	.
8C'/J	8C'/J	24c'/LL	24r
.	.	(24dd/	(24ddd\LL
.	.	24cc/JJ	24ccc\JJ
(16D\LL	(16F/LL	24b-/LL	24bb-\LL
.	.	24a/	24aa\
16E\JJ)	16G/JJ)	.	.
.	.	24g/JJ)	24gg\JJ)
=180	=180	=180	=180
(4F\	24r	(4A/	(24ff\LL
.	(24cc\LL	.	24cc\
.	24b-\JJ	.	24ee\JJ
.	24a\LL	.	24ff\LL
.	24g\	.	24gg\
.	24f\JJ	.	24aa\JJ
4G\)	4e\)	4B-/)	24ee\LL
.	.	.	24ddd\
.	.	.	24ccc\JJ
.	.	.	24bb-\LL
.	.	.	24aa\
.	.	.	24gg\JJ)
=181	=181	=181	=181
8A'\L	8f'\L	8c'/L	8ff'\L
8B-'\	8dd'\	8d'/	8gg'\
8c'\J	8cc'\J	8c'/J	8cc'\J
8EE-'/	8E-'/	8e-'/	16ccc'\
.	.	.	(32aa\LLL
.	.	.	32bb-\JJJ
=182	=182	=182	=182
2EE-/	2E-/	(4.e-/	4ccc\
.	.	.	8..gg\L
.	.	8c/)	.
.	.	.	32aa\Jkk)
=183	=183	=183	=183
8EE-'/	16E-'/	16a'/	8ff#'\
.	(32a\LLL	(32aa\LLL	.
.	32b-\JJJ	32bb-\JJJ	.
8r	8cc'\)	8ccc'\)	8r
8.r	8.r	8.r	8.r
(32C/LLL	(32c\LLL	(32cc\LLL	(32ccc\LLL
32D/JJJ	32d\JJJ	32dd\JJJ	32ddd\JJJ
=184	=184	=184	=184
4E-\)	4e-\)	4ee-\)	4eee-\)
(8..BB-/L	(8..B-/L	(8..b-\L	(8..bb-\L
32C/Jkk)	32c/Jkk)	32cc\Jkk)	32ccc\Jkk)
=185	=185	=185	=185
8AA'/	16A'/	8a'/	16aa\
.	(32cc\LLL	.	(32ccc\LLL
.	32dd\JJJ	.	32ddd\JJJ
16r	8ee-'\)	8r	8eee-'\)
(32C/LLL	.	.	.
32D/JJJ	.	.	.
8E-\)	16.r	4r	4r
.	(32c/LLK	.	.
8r	16F/	.	.
.	16A/JJ)	.	.
=186	=186	=186	=186
8D/L	8B-/	16.r	4r
.	.	(32dd/LLK	.
8D/	8r	16f/	.
.	.	16b-/JJ	.
8AA/	4r	8cc/L)	16.r
.	.	.	(32ee-\LLK
8FF/J	.	8A'/J	16f\
.	.	.	16cc\JJ)
=187	=187	=187	=187
8r	4r	8r	(16.dd\LL
.	.	.	32ee-\JJk)
(16.B-\LL	.	(16.d/LL	[8ff\
32c\Jk	.	32e-/JJk	.
8d\J)	8r	8f/L)	16ff\LK]
.	.	.	32r
.	.	.	(32gg\LK
8B-\	8G'/	8c'/J 8en'/	16cc\
.	.	.	16een\JJ)
=188	=188	=188	=188
8r	4r	16.r	8ff'\
.	.	(32a/LLK	.
8A\L	.	16c/	8r
.	.	16f/JJ	.
8E\	16.r	8g'/L)	8r
.	(32B-/LLK	.	.
8C\J	16C/	8e'/J	8gg\
.	16G/JJ)	.	.
=189	=189	=189	=189
8r	(16.A/LL	2r	8r
.	32B-/JJk)	.	.
(16.F\LL	[8c\L	.	(16.aa\LL
32G\JJk	.	.	32bb-\JJk)
8A\)	16c\Jk]	.	8ccc'\L
.	(16f\LL	.	.
8B-\	16e\	.	8ddd'\J
.	16d\JJ	.	.
=190	=190	=190	=190
8r	16c'\)	16r	4r
.	(16B-/LL	(16dd\LL	.
(16GG/LL	16D/	16b-\	.
16BB-/JJ	16B-/JJ	16g\JJ	.
8C'/L)	16A'/)	16f'/)	16r
.	(16B-/LL	(16g/LL	(16gg\LL
8BB-'/J	16G/	16c/	16ee\
.	16e/JJ)	16g/JJ)	16cc\JJ)
=191	=191	=191	=191
8AA/L	(16.f\LL	16.a/LL	(16.aa\LL
.	32g\JJk)	32b-/JJk	32bb-\Jk)
(16.FF/L	(16.A/LL	[8f/ [8cc/	[8ccc\J
32GG/JJk)	32B-/JJk)	.	.
16.AA;/	16.F;/ 16.c;/	16.f;/] 16.cc;/]	16.ccc;\]
32r	(32f\LLK	(32ff\LLK	(32fff\LLK
8BB-/	16e\	16ee\	16eee\
.	16d\JJ	16dd\JJ	16ddd\JJ
=192	=192	=192	=192
8r	16c'\)	16cc'\)	16ccc'\)
.	32r	32r	32r
.	(32d/LLK	(32dd/LLK	(32ddd\LLK
8BB-/	16B-/	16b-/	16bb-\
.	16G/JJ	16g/JJ	16gg\JJ
16C/	16F'/)	16f'/)	16ff'\)
32r	32r	32r	32r
(32GG/LLK	(32G/LLK	(32g/LLK	(32gg\LLK
16EE/	16E/	16e/	16ee\
16CC/JJ	16C/JJ	16c/JJ	16cc\JJ
=193	=193	=193	=193
8FF/)	8F/)	8A/) 8f/	8a\) 8ff\
8r	8r	8r	8r
4r;	4r;	4r;	4r;
==	==	==	==
*-	*-	*-	*-
!!!ENC: Craig Stuart Sapp
!!!END: 2004/09/08/
